icons/svg/amenity/shower.svg

<?xml version="1.0" encoding="UTF-8" standalone="no"?>
<!-- Created with Inkscape (http://www.inkscape.org/) -->

<svg
   xmlns:dc="http://purl.org/dc/elements/1.1/"
   xmlns:cc="http://creativecommons.org/ns#"
   xmlns:rdf="http://www.w3.org/1999/02/22-rdf-syntax-ns#"
   xmlns:svg="http://www.w3.org/2000/svg"
   xmlns="http://www.w3.org/2000/svg"
   xmlns:sodipodi="http://sodipodi.sourceforge.net/DTD/sodipodi-0.dtd"
   xmlns:inkscape="http://www.inkscape.org/namespaces/inkscape"
   version="1.0"
   width="580"
   height="580"
   id="svg2"
   sodipodi:version="0.32"
   inkscape:version="0.91 r"
   sodipodi:docname="shower.svg"
   inkscape:output_extension="org.inkscape.output.svg.inkscape">
  <metadata
     id="metadata2975">
    <rdf:RDF>
      <cc:Work
         rdf:about="">
        <dc:format>image/svg+xml</dc:format>
        <dc:type
           rdf:resource="http://purl.org/dc/dcmitype/StillImage" />
        <cc:license
           rdf:resource="http://web.resource.org/cc/PublicDomain" />
        <dc:language>en</dc:language>
        <dc:title></dc:title>
      </cc:Work>
    </rdf:RDF>
  </metadata>
  <sodipodi:namedview
     inkscape:window-height="1004"
     inkscape:window-width="1920"
     inkscape:pageshadow="2"
     inkscape:pageopacity="0.0"
     guidetolerance="10.0"
     gridtolerance="10.0"
     objecttolerance="10.0"
     borderopacity="1.0"
     bordercolor="#666666"
     pagecolor="#ffffff"
     id="base"
     inkscape:zoom="0.16293104"
     inkscape:cx="786.67406"
     inkscape:cy="-27.90391"
     inkscape:window-x="1680"
     inkscape:window-y="0"
     inkscape:current-layer="svg2"
     showgrid="false"
     inkscape:window-maximized="1" />
  <defs
     id="defs4">
    <inkscape:perspective
       sodipodi:type="inkscape:persp3d"
       inkscape:vp_x="0 : 290 : 1"
       inkscape:vp_y="0 : 1000 : 0"
       inkscape:vp_z="580 : 290 : 1"
       inkscape:persp3d-origin="290 : 193.33333 : 1"
       id="perspective2441" />
    <inkscape:perspective
       id="perspective3452"
       inkscape:persp3d-origin="30 : 20 : 1"
       inkscape:vp_z="60 : 30 : 1"
       inkscape:vp_y="0 : 1000 : 0"
       inkscape:vp_x="0 : 30 : 1"
       sodipodi:type="inkscape:persp3d" />
    <symbol
       viewBox="244.5 110 489 219.9"
       id="symbol-university">
      <path
         id="path4460"
         d="M79,43l57,119c0,0,21-96,104-96s124,106,124,106l43-133l82-17L0,17L79,43z" />
      <path
         id="path4462"
         d="M94,176l-21,39"
         stroke-width="20"
         stroke="#000000"
         fill="none" />
      <path
         id="path4464"
         d="M300,19c0,10.5-22.6,19-50.5,19S199,29.5,199,19s22.6-19,50.5-19S300,8.5,300,19z" />
      <path
         id="path4466"
         d="M112,216l-16-38L64,88c0,0-9-8-4-35s16-24,16-24"
         stroke-width="20"
         stroke="#000000"
         ill="none" />
    </symbol>
    <inkscape:perspective
       id="perspective4471"
       inkscape:persp3d-origin="372.04724 : 350.78739 : 1"
       inkscape:vp_z="744.09448 : 526.18109 : 1"
       inkscape:vp_y="0 : 1000 : 0"
       inkscape:vp_x="0 : 526.18109 : 1"
       sodipodi:type="inkscape:persp3d" />
    <inkscape:perspective
       id="perspective4668"
       inkscape:persp3d-origin="6 : 4 : 1"
       inkscape:vp_z="12 : 6 : 1"
       inkscape:vp_y="0 : 1000 : 0"
       inkscape:vp_x="0 : 6 : 1"
       sodipodi:type="inkscape:persp3d" />
    <inkscape:perspective
       id="perspective4904"
       inkscape:persp3d-origin="16 : 10.666667 : 1"
       inkscape:vp_z="32 : 16 : 1"
       inkscape:vp_y="0 : 1000 : 0"
       inkscape:vp_x="0 : 16 : 1"
       sodipodi:type="inkscape:persp3d" />
  </defs>
  <g
     id="g1327">
    <path
       d="M 66.275,1.768 C 24.94,1.768 1.704,23.139 1.704,66.804 L 1.704,516.927 C 1.704,557.771 22.599,579.156 63.896,579.156 L 515.92,579.156 C 557.227,579.156 578.149,558.841 578.149,516.927 L 578.149,66.804 C 578.149,24.203 557.227,1.768 514.628,1.768 C 514.624,1.768 66.133,1.625 66.275,1.768 z "
       style="fill:#111;stroke:#eee;stroke-width:3.40799999"
       id="path1329" />
  </g>
  <g
     id="g4372"
     transform="translate(-166.49217,52.019299)" />
  <path
     style="fill:#ffffff"
     inkscape:connector-curvature="0"
     d="M 214.72015,299.69872 370.86361,143.55526 C 334.65217,107.34383 279.55177,101.5577 237.28606,126.16865 218.88591,100.85079 189.06231,84.344275 155.43988,84.344275 c -55.768829,0 -101.140569,45.371745 -101.140569,101.140565 l 0,294.57013 c 0,8.61633 12.890084,15.60075 21.5077,15.60075 8.617617,0 18.554867,-6.98442 18.554867,-15.60075 l 0,-294.56885 c 0,-38.56438 22.516182,-61.07928 61.079282,-61.07928 23.72956,0 37.83262,12.87471 50.48385,30.99775 -37.38053,46.86216 -30.85612,108.87066 8.79514,144.29413 z"
     id="path11"
     sodipodi:nodetypes="cccssssssscc" />
  <path
     style="fill:#ffffff;stroke:#ffffff;stroke-width:8.46751022;stroke-miterlimit:4;stroke-dasharray:none;stroke-opacity:1"
     inkscape:connector-curvature="0"
     d="m 399.96345,151.66212 c -3.08294,-3.08422 -8.0839,-3.08422 -11.16941,0.001 L 224.22027,316.23589 c -3.08423,3.08551 -3.08551,8.08647 -0.001,11.1707 3.08551,3.08551 8.08647,3.08422 11.1707,0 L 399.96345,162.83282 c 3.08551,-3.08551 3.08551,-8.08519 0,-11.1707 z"
     id="path13" />
  <path
     style="fill:#ffffff;stroke:#ffffff;stroke-width:16.7298336;stroke-miterlimit:4;stroke-dasharray:none;stroke-opacity:1"
     inkscape:connector-curvature="0"
     d="m 525.95928,286.45125 7.99648,4.33492 c 1.74988,0.94822 3.50658,1.60985 5.15055,1.98539 3.89665,0.89014 7.16851,0.1797 8.2198,-2.11478 1.49555,-3.26344 -2.06407,-8.49678 -7.95144,-11.68951 l -7.9965,-4.33493 c -5.88883,-3.1918 -11.87662,-3.13447 -13.37218,0.12898 -1.49558,3.26343 2.06631,8.49855 7.95329,11.68993 z"
     id="path63" />
  <path
     style="fill:#ffffff;stroke:#ffffff;stroke-width:16.7298336;stroke-miterlimit:4;stroke-dasharray:none;stroke-opacity:1"
     inkscape:connector-curvature="0"
     d="m 464.65688,253.21695 7.99691,4.33628 c 1.74987,0.94821 3.5066,1.60985 5.15055,1.9854 3.89665,0.89014 7.1685,0.17968 8.21979,-2.1148 1.49558,-3.26342 -2.06406,-8.49677 -7.95144,-11.68951 l -7.99649,-4.33491 c -5.88882,-3.19181 -11.87662,-3.13446 -13.37219,0.12897 -1.49373,3.26385 2.0659,8.49718 7.95287,11.68857 z"
     id="path69" />
  <path
     style="fill:#ffffff;stroke:#ffffff;stroke-width:16.7298336;stroke-miterlimit:4;stroke-dasharray:none;stroke-opacity:1"
     inkscape:connector-curvature="0"
     d="m 408.77339,208.16375 c -5.88555,-3.19231 -11.87392,-3.13133 -13.36992,0.13075 -1.49556,3.26343 2.06406,8.49676 7.95329,11.68992 l 7.99647,4.33492 c 1.74808,0.94777 3.50476,1.60943 5.14875,1.98498 3.89663,0.89014 7.16846,0.17969 8.21935,-2.11614 1.49558,-3.26344 -2.06406,-8.49677 -7.95328,-11.68992 l -7.99466,-4.33451 z"
     id="path77" />
  <path
     style="fill:#ffffff;stroke:#ffffff;stroke-width:16.7298336;stroke-miterlimit:4;stroke-dasharray:none;stroke-opacity:1"
     inkscape:connector-curvature="0"
     d="m 454.44139,373.18538 6.59582,6.2634 c 1.44348,1.37025 2.96799,2.46552 4.45796,3.25523 3.53164,1.87185 6.87573,2.03576 8.48698,0.0931 2.29199,-2.76289 0.21406,-8.74128 -4.64178,-13.35381 l -6.59584,-6.26342 c -4.8575,-4.61201 -10.65462,-6.11213 -12.94659,-3.34925 -2.292,2.76288 -0.21238,8.74357 4.64345,13.35469 z"
     id="path63-5" />
  <path
     style="fill:#ffffff;stroke:#ffffff;stroke-width:16.7298336;stroke-miterlimit:4;stroke-dasharray:none;stroke-opacity:1"
     inkscape:connector-curvature="0"
     d="m 403.87715,325.16703 6.59588,6.26485 c 1.44347,1.37022 2.96802,2.46552 4.45798,3.25523 3.53162,1.87186 6.8757,2.03573 8.48696,0.0931 2.29199,-2.76286 0.21408,-8.74127 -4.64178,-13.3538 l -6.59585,-6.2634 c -4.85746,-4.61202 -10.65459,-6.11214 -12.94659,-3.34925 -2.29034,2.76375 -0.21241,8.74212 4.6434,13.35325 z"
     id="path69-1" />
  <path
     style="fill:#ffffff;stroke:#ffffff;stroke-width:16.7298336;stroke-miterlimit:4;stroke-dasharray:none;stroke-opacity:1"
     inkscape:connector-curvature="0"
     d="m 361.61607,267.14329 c -4.85419,-4.61166 -10.65282,-6.10842 -12.94487,-3.34696 -2.29199,2.76288 -0.21407,8.74125 4.64346,13.35467 l 6.59581,6.26341 c 1.44185,1.36935 2.96634,2.46463 4.45633,3.25436 3.53162,1.87184 6.87568,2.03573 8.48689,0.0917 2.292,-2.76288 0.21408,-8.74126 -4.64344,-13.35468 l -6.59418,-6.26252 z"
     id="path77-0" />
  <path
     style="fill:#ffffff;stroke:#ffffff;stroke-width:16.7298336;stroke-miterlimit:4;stroke-dasharray:none;stroke-opacity:1"
     inkscape:connector-curvature="0"
     d="m 369.15632,446.01057 4.8225,7.71225 c 1.05551,1.68734 2.25818,3.12864 3.50369,4.26546 2.95221,2.69456 6.14939,3.68847 8.19477,2.20985 2.90936,-2.10292 2.39043,-8.4108 -1.15954,-14.08992 l -4.82253,-7.71226 c -3.55168,-5.67904 -8.79043,-8.57947 -11.69982,-6.47657 -2.90939,2.10289 -2.38936,8.41344 1.16093,14.09119 z"
     id="path63-6" />
  <path
     style="fill:#ffffff;stroke:#ffffff;stroke-width:16.7298336;stroke-miterlimit:4;stroke-dasharray:none;stroke-opacity:1"
     inkscape:connector-curvature="0"
     d="m 332.18718,386.8854 4.82221,7.71363 c 1.05551,1.68733 2.25818,3.12866 3.50369,4.26548 2.95219,2.69456 6.14938,3.68842 8.19472,2.20982 2.90943,-2.10288 2.39047,-8.41078 -1.15949,-14.08993 l -4.82253,-7.71223 c -3.55169,-5.67903 -8.79043,-8.57945 -11.69984,-6.47656 -2.90799,2.10415 -2.38906,8.41204 1.16124,14.08979 z"
     id="path69-3" />
  <path
     style="fill:#ffffff;stroke:#ffffff;stroke-width:16.7298336;stroke-miterlimit:4;stroke-dasharray:none;stroke-opacity:1"
     inkscape:connector-curvature="0"
     d="m 305.75695,320.14562 c -3.5486,-5.67786 -8.78963,-8.57541 -11.69873,-6.4739 -2.90938,2.10288 -2.39045,8.41077 1.16092,14.09117 l 4.82251,7.71225 c 1.05416,1.68606 2.25679,3.12737 3.50233,4.26421 2.95218,2.69455 6.14936,3.68843 8.19503,2.20844 2.90939,-2.1029 2.39044,-8.4108 -1.16093,-14.09118 l -4.82113,-7.71099 z"
     id="path77-1" />
</svg>

<svg width="580" height="580" viewBox="0 0 580 580" fill="none" xmlns="http://www.w3.org/2000/svg">
<g clip-path="url(#clip0)">
<path d="M66.2751 1.7679C24.9401 1.7679 1.7041 23.1389 1.7041 66.8039V516.927C1.7041 557.771 22.5991 579.156 63.8961 579.156H515.92C557.227 579.156 578.149 558.841 578.149 516.927V66.8039C578.149 24.2029 557.227 1.7679 514.628 1.7679C514.624 1.7679 66.1331 1.6249 66.2751 1.7679Z" fill="#111111" stroke="#EEEEEE" stroke-width="3.408"/>
<path d="M214.72 299.699L370.864 143.555C334.652 107.344 279.552 101.558 237.286 126.169C218.886 100.851 189.062 84.3442 155.44 84.3442C99.6711 84.3442 54.2993 129.716 54.2993 185.485V480.055C54.2993 488.671 67.1894 495.656 75.807 495.656C84.4246 495.656 94.3619 488.671 94.3619 480.055V185.486C94.3619 146.922 116.878 124.407 155.441 124.407C179.171 124.407 193.274 137.282 205.925 155.405C168.544 202.267 175.069 264.275 214.72 299.699V299.699Z" fill="white"/>
<path d="M399.963 151.662C396.88 148.578 391.88 148.578 388.794 151.663L224.22 316.236C221.136 319.321 221.135 324.322 224.219 327.407C227.305 330.492 232.306 330.491 235.39 327.407L399.963 162.833C403.049 159.747 403.049 154.748 399.963 151.662Z" fill="white" stroke="white" stroke-width="8.46751"/>
<path d="M525.959 286.451L533.956 290.786C535.706 291.734 537.462 292.396 539.106 292.772C543.003 293.662 546.275 292.951 547.326 290.657C548.822 287.393 545.262 282.16 539.375 278.967L531.378 274.632C525.489 271.441 519.501 271.498 518.006 274.761C516.51 278.025 520.072 283.26 525.959 286.451V286.451Z" fill="white" stroke="white" stroke-width="16.7298"/>
<path d="M464.657 253.217L472.654 257.553C474.404 258.501 476.16 259.163 477.804 259.539C481.701 260.429 484.973 259.718 486.024 257.424C487.52 254.16 483.96 248.927 478.073 245.734L470.076 241.399C464.187 238.208 458.2 238.265 456.704 241.528C455.21 244.792 458.77 250.026 464.657 253.217V253.217Z" fill="white" stroke="white" stroke-width="16.7298"/>
<path d="M408.773 208.164C402.888 204.971 396.899 205.032 395.403 208.294C393.908 211.558 397.468 216.791 403.357 219.984L411.353 224.319C413.101 225.267 414.858 225.929 416.502 226.304C420.399 227.194 423.67 226.484 424.721 224.188C426.217 220.925 422.657 215.691 416.768 212.498L408.773 208.164V208.164Z" fill="white" stroke="white" stroke-width="16.7298"/>
<path d="M454.441 373.185L461.037 379.449C462.481 380.819 464.005 381.914 465.495 382.704C469.027 384.576 472.371 384.74 473.982 382.797C476.274 380.034 474.196 374.056 469.34 369.443L462.745 363.18C457.887 358.568 452.09 357.068 449.798 359.831C447.506 362.593 449.586 368.574 454.441 373.185V373.185Z" fill="white" stroke="white" stroke-width="16.7298"/>
<path d="M403.877 325.167L410.473 331.432C411.917 332.802 413.441 333.897 414.931 334.687C418.463 336.559 421.807 336.723 423.418 334.78C425.71 332.017 423.632 326.039 418.776 321.426L412.18 315.163C407.323 310.551 401.526 309.051 399.234 311.814C396.943 314.577 399.021 320.556 403.877 325.167V325.167Z" fill="white" stroke="white" stroke-width="16.7298"/>
<path d="M361.616 267.143C356.762 262.532 350.963 261.035 348.671 263.796C346.379 266.559 348.457 272.538 353.315 277.151L359.911 283.414C361.352 284.784 362.877 285.879 364.367 286.669C367.899 288.541 371.243 288.704 372.854 286.76C375.146 283.998 373.068 278.019 368.21 273.406L361.616 267.143V267.143Z" fill="white" stroke="white" stroke-width="16.7298"/>
<path d="M369.156 446.011L373.979 453.723C375.034 455.41 376.237 456.852 377.482 457.988C380.435 460.683 383.632 461.677 385.677 460.198C388.587 458.095 388.068 451.787 384.518 446.108L379.695 438.396C376.144 432.717 370.905 429.817 367.995 431.92C365.086 434.022 365.606 440.333 369.156 446.011Z" fill="white" stroke="white" stroke-width="16.7298"/>
<path d="M332.187 386.886L337.009 394.599C338.065 396.286 339.268 397.728 340.513 398.865C343.465 401.559 346.662 402.553 348.708 401.074C351.617 398.972 351.098 392.664 347.548 386.985L342.726 379.272C339.174 373.593 333.935 370.693 331.026 372.796C328.118 374.9 328.637 381.208 332.187 386.886V386.886Z" fill="white" stroke="white" stroke-width="16.7298"/>
<path d="M305.757 320.145C302.208 314.468 296.967 311.57 294.058 313.672C291.149 315.774 291.668 322.082 295.219 327.763L300.042 335.475C301.096 337.161 302.298 338.602 303.544 339.739C306.496 342.434 309.693 343.428 311.739 341.948C314.648 339.845 314.129 333.537 310.578 327.856L305.757 320.145V320.145Z" fill="white" stroke="white" stroke-width="16.7298"/>
</g>
<defs>
<clipPath id="clip0">
<path d="M0 0H580V580H0V0Z" fill="white"/>
</clipPath>
</defs>
</svg>
